dist/assets/icons/icon-book-spell.svg

<svg width="36" height="36" viewBox="0 0 36 36" fill="none" xmlns="http://www.w3.org/2000/svg">
<path d="M31.5 26V3C31.5 2.5 31 2 30.5 2H8.5C5.6875 2 3.5 4.25 3.5 7V29C3.5 31.8125 5.6875 34 8.5 34H30.5C31 34 31.5 33.5625 31.5 33V32C31.5 31.5625 31.125 31.125 30.6875 31.0625C30.375 30.25 30.375 27.8125 30.6875 27C31.125 26.9375 31.5 26.5 31.5 26ZM28.125 31H8.5C7.375 31 6.5 30.125 6.5 29C6.5 27.9375 7.375 27 8.5 27H28.125C27.9375 28.125 27.9375 29.9375 28.125 31ZM28.5 24H8.5C7.75 24 7.0625 24.1875 6.5 24.4375V7C6.5 5.9375 7.375 5 8.5 5H28.5V24ZM18.8125 18.6875L20.5 22L22.125 18.6875L25.5 17L22.125 15.375L20.5 12L18.8125 15.375L15.5 17L18.8125 18.6875ZM13.5 14.5L14.625 12.1875L17 11L14.625 9.875L13.5 7.5L12.3125 9.875L10 11L12.3125 12.1875L13.5 14.5Z" fill="#E7EAF3"/>
</svg>

<svg width="36" height="36" fill="none" xmlns="http://www.w3.org/2000/svg"><path d="M31.5 26V3c0-.5-.5-1-1-1h-22c-2.813 0-5 2.25-5 5v22c0 2.813 2.188 5 5 5h22c.5 0 1-.438 1-1v-1c0-.438-.375-.875-.813-.938-.312-.812-.312-3.25 0-4.062.438-.063.813-.5.813-1zm-3.375 5H8.5c-1.125 0-2-.875-2-2 0-1.063.875-2 2-2h19.625c-.188 1.125-.188 2.938 0 4zm.375-7h-20c-.75 0-1.438.188-2 .438V7c0-1.063.875-2 2-2h20v19zm-9.688-5.313L20.5 22l1.625-3.313L25.5 17l-3.375-1.625L20.5 12l-1.688 3.375L15.5 17l3.313 1.688zM13.5 14.5l1.125-2.313L17 11l-2.375-1.125L13.5 7.5l-1.188 2.375L10 11l2.313 1.188L13.5 14.5z" fill="#E7EAF3"/></svg>
